img/visible eye open - neg.svg

<svg width="48" height="48" viewBox="0 0 48 48" fill="none" xmlns="http://www.w3.org/2000/svg">
<path fill-rule="evenodd" clip-rule="evenodd" d="M19.7953 26.256C18.7328 25.4628 17.8559 24.58 17.3243 24C17.8559 23.42 18.7328 22.5372 19.7953 21.744C21.1319 20.7462 22.6173 20 24 20C25.3827 20 26.8681 20.7462 28.2047 21.744C29.2672 22.5372 30.1441 23.42 30.6757 24C30.1441 24.58 29.2672 25.4628 28.2047 26.256C26.8681 27.2538 25.3827 28 24 28C22.6173 28 21.1319 27.2538 19.7953 26.256ZM24 18C21.9641 18 20.0459 19.0611 18.5989 20.1413C17.1263 21.2406 15.9911 22.4742 15.4988 23.0423C15.0205 23.5941 15.0205 24.4059 15.4988 24.9577C15.9911 25.5258 17.1263 26.7594 18.5989 27.8587C20.0459 28.9389 21.9641 30 24 30C26.0359 30 27.9541 28.9389 29.4011 27.8587C30.8737 26.7594 32.0089 25.5258 32.5012 24.9577C32.9795 24.4059 32.9795 23.5941 32.5012 23.0423C32.0089 22.4742 30.8737 21.2406 29.4011 20.1413C27.9541 19.0611 26.0359 18 24 18ZM24 26C25.1046 26 26 25.1046 26 24C26 22.8954 25.1046 22 24 22C22.8954 22 22 22.8954 22 24C22 25.1046 22.8954 26 24 26Z" fill="#EAEAEA"/>
</svg>

<?xml version="1.0" encoding="utf-8"?>
<!-- Generator: Adobe Illustrator 22.0.1, SVG Export Plug-In . SVG Version: 6.00 Build 0)  -->
<svg version="1.1" id="Layer_1" xmlns="http://www.w3.org/2000/svg" xmlns:xlink="http://www.w3.org/1999/xlink" x="0px" y="0px"
	 viewBox="0 0 48 48" style="enable-background:new 0 0 48 48;" xml:space="preserve">
<style type="text/css">
	.st0{fill:#FFFFFF;}
</style>
<path class="st0" d="M19.8,26.3c-1.1-0.8-1.9-1.7-2.5-2.3c0.5-0.6,1.4-1.5,2.5-2.3c1.3-1,2.8-1.7,4.2-1.7s2.9,0.7,4.2,1.7
	c1.1,0.8,1.9,1.7,2.5,2.3c-0.5,0.6-1.4,1.5-2.5,2.3c-1.3,1-2.8,1.7-4.2,1.7S21.1,27.3,19.8,26.3z M24,18c-2,0-4,1.1-5.4,2.1
	c-1.5,1.1-2.6,2.3-3.1,2.9c-0.5,0.6-0.5,1.4,0,1.9c0.5,0.6,1.6,1.8,3.1,2.9C20,28.9,22,30,24,30s4-1.1,5.4-2.1
	c1.5-1.1,2.6-2.3,3.1-2.9c0.5-0.6,0.5-1.4,0-1.9c-0.5-0.6-1.6-1.8-3.1-2.9C28,19.1,26,18,24,18z M24,26c1.1,0,2-0.9,2-2s-0.9-2-2-2
	s-2,0.9-2,2S22.9,26,24,26z"/>
</svg>
